X:1
T:Jingle Bells
T:Jingle Bells
T:Hayley Striegel
T:Arranged for Brianna and Leah
C:Hayley Striegel
%%score 1 { 2 | 3 }
L:1/8
M:4/4
K:C
V:1 treble nm="Violin" snm="Vln."
V:2 treble nm="Piano" snm="Pno."
V:3 bass 
V:1
!f! .v!2!^c2 .c2 c4 | .u^c2 .c2 c4 |!p! ^c8 | ^c8 | !0!D8 | !0!D8 | !2!^c3 z !1!B3 z | %7
 vB4 !breath!z4 |!f! .v!2!^c2 .c2 c4 | .u^c2 .c2 c4 |!p! ^c8 | ^c8 | !0!D8 | !0!D8 | !1!E8 | %15
 !0!A8 |!mf! !breath!v!2!^c8 :| %17
V:2
!mf! .!1!A2 .A2 A4 | .A2 .A2 A4 |!f! !3!^c2 !5!e2 !1!A2 !2!B2 | !3!^c8 | !4!d2 d2 d2 d2 | %5
 d2 !3!^c2 c2 c2 | ^c2 !2!B2 B2 c2 | !2!B4 !5!e4 |!mf! .!1!A2 .A2 A4 | .A2 .A2 A4 | %10
!f! !3!^c2 !5!e2 !1!A2 !2!B2 | !3!^c8 | !4!d2 d2 d2 d2 | d2 !3!^c2 c2 c2 | !5!e2 e2 !4!d2 !2!B2 | %15
 !1!A8 | !5!a8 :| %17
V:3
 .!5!!3!!1![A,,^C,E,]2 .[A,,C,E,]2 [A,,C,E,]4 | .[A,,^C,E,]2 .[A,,C,E,]2 [A,,C,E,]4 | [A,,^C,E,]8 | %3
 [A,,^C,E,]8 | !5!!2!!1![A,,D,^F,]8 | [A,,D,^F,]8 | [A,,D,^F,]8 | !2!!1![E,^G,]8 | %8
 .!5!!3!!1![A,,^C,E,]2 .[A,,C,E,]2 [A,,C,E,]4 | .[A,,^C,E,]2 .[A,,C,E,]2 [A,,C,E,]4 | [A,,^C,E,]8 | %11
 [A,,^C,E,]8 | !5!!2!!1![A,,D,^F,]8 | [A,,D,^F,]8 | !2!!1![E,^G,]8 | !5!!3!!1![A,,^C,E,]8 | %16
 !1!A,8 :| %17

